!!! OTL: Berkowitz43
!!! Chapter: 1
!!! Section: I
!!! Page: 13
!!! Mode: 
!!! Encoder: DJB
**kern
*staff1
*I"Piano
=1-
*clefG2
*k[b-]
*d:
*M3/4
4d/
4f/
4e/
=2
4d/
4c#/
4d/
=3
4e/
4f/
4g/
=4
4f/
4r
4e/
=5
4f/
4g/
4a/
=6
2b-\
4a/
=7
4g/
4f/
4g/
=8
4a/
4r
4g/
=9
4f/
4e/
4f/
=10
4g/
4r
4f/
=11
4e/
4f/
4g/
=12
4a/
4b-\
4a/
=13
4cc\
4b-\
4a/
=14
4g/
4f/
4e/
=15
2f/
4r
=16
4e/
4f/
4g/
=17
4a/
4b-\
4a/
=18
4g/
4f/
4e/
=19
4d/
4r
4e/
=20
4f/
4e/
4d/
=21
4c#/
4r
4d/
=22
4e/
4d/
4c#/
=23
2.d/
==
*-
